src/imagens/footer/iconeEmail.svg

<svg width="100" height="114" viewBox="0 0 100 114" fill="none" xmlns="http://www.w3.org/2000/svg">
<g filter="url(#filter0_i_112_782)">
<path d="M97.6815 26.4656L50.8794 0.997952C49.8718 0.449678 48.6534 0.456857 47.6523 1.01697L1.77758 26.6852C0.719844 27.2771 0.0657864 28.3955 0.0686193 29.6075L0.195347 83.8266C0.19818 85.0387 0.857458 86.1541 1.91795 86.7409L47.9122 112.194C48.9158 112.75 50.1343 112.751 51.1393 112.198L97.8218 86.5122C98.8912 85.9238 99.5544 84.799 99.5516 83.5784L99.4249 29.3913C99.422 28.1708 98.7536 27.049 97.6815 26.4656Z" fill="#151515"/>
</g>
<path d="M67.7312 39.7957H33.9812C30.8748 39.7957 28.3562 42.3014 28.3562 45.3919V67.7769C28.3562 70.8675 30.8748 73.3732 33.9812 73.3732H67.7312C70.8376 73.3732 73.3562 70.8675 73.3562 67.7769V45.3919C73.3562 42.3014 70.8376 39.7957 67.7312 39.7957ZM58.4725 54.729L70.3789 44.5776C70.4613 44.8399 70.5437 45.1022 70.5437 45.3919V67.7769C70.5437 67.971 70.4695 68.1431 70.4311 68.3262L58.4725 54.729ZM67.7312 42.5938C67.918 42.5938 68.0828 42.6649 68.2585 42.7004L50.8562 57.5409L33.4539 42.7004C33.6296 42.6649 33.7944 42.5938 33.9812 42.5938H67.7312ZM31.28 68.3235C31.2415 68.1404 31.1687 67.971 31.1687 67.7769V45.3919C31.1687 45.1022 31.2525 44.8399 31.3349 44.5776L43.2372 54.7263L31.28 68.3235ZM33.9812 70.5751C33.697 70.5751 33.4387 70.4931 33.1792 70.4138L45.374 56.5488L49.9416 60.4427C50.2039 60.6696 50.5307 60.7816 50.8562 60.7816C51.1817 60.7816 51.5085 60.6696 51.7708 60.4428L56.3384 56.5489L68.5332 70.4139C68.2751 70.4931 68.0168 70.5751 67.7312 70.5751H33.9812Z" fill="#00FFC2"/>
<defs>
<filter id="filter0_i_112_782" x="0.0686035" y="0.591797" width="101.153" height="113.69" filterUnits="userSpaceOnUse" color-interpolation-filters="sRGB">
<feFlood flood-opacity="0" result="BackgroundImageFix"/>
<feBlend mode="normal" in="SourceGraphic" in2="BackgroundImageFix" result="shape"/>
<feColorMatrix in="SourceAlpha" type="matrix" values="0 0 0 0 0 0 0 0 0 0 0 0 0 0 0 0 0 0 127 0" result="hardAlpha"/>
<feOffset dx="1.66986" dy="1.66986"/>
<feGaussianBlur stdDeviation="2.50479"/>
<feComposite in2="hardAlpha" operator="arithmetic" k2="-1" k3="1"/>
<feColorMatrix type="matrix" values="0 0 0 0 0 0 0 0 0 0 0 0 0 0 0 0 0 0 0.25 0"/>
<feBlend mode="normal" in2="shape" result="effect1_innerShadow_112_782"/>
</filter>
</defs>
</svg>

<svg xmlns="http://www.w3.org/2000/svg" width="100" height="114" fill="none"><g filter="url(#a)"><path fill="#151515" d="M97.681 26.466 50.88.998a3.34 3.34 0 0 0-3.227.019L1.778 26.685a3.34 3.34 0 0 0-1.71 2.923l.127 54.219a3.34 3.34 0 0 0 1.723 2.914l45.994 25.453a3.338 3.338 0 0 0 3.227.004l46.683-25.686a3.34 3.34 0 0 0 1.73-2.934l-.127-54.187a3.34 3.34 0 0 0-1.743-2.925Z"/></g><path fill="#00FFC2" d="M67.731 39.796h-33.75c-3.106 0-5.625 2.505-5.625 5.596v22.385c0 3.09 2.519 5.596 5.625 5.596h33.75c3.107 0 5.625-2.505 5.625-5.596V45.392c0-3.09-2.518-5.596-5.625-5.596Zm-9.258 14.933 11.906-10.151c.082.262.165.524.165.814v22.385c0 .194-.075.366-.113.55L58.472 54.728Zm9.258-12.135c.187 0 .352.07.528.106L50.855 57.54 33.454 42.7c.176-.035.34-.106.527-.106h33.75ZM31.28 68.324c-.039-.184-.111-.353-.111-.547V45.392c0-.29.084-.552.166-.814l11.902 10.148L31.28 68.323Zm2.701 2.251c-.284 0-.542-.082-.802-.161l12.195-13.865 4.568 3.894c.262.227.589.339.914.339.326 0 .652-.112.915-.34l4.567-3.893 12.195 13.865c-.258.08-.516.161-.802.161h-33.75Z"/><defs><filter id="a" width="101.153" height="113.69" x=".069" y=".592" color-interpolation-filters="sRGB" filterUnits="userSpaceOnUse"><feFlood flood-opacity="0" result="BackgroundImageFix"/><feBlend in="SourceGraphic" in2="BackgroundImageFix" result="shape"/><feColorMatrix in="SourceAlpha" result="hardAlpha" values="0 0 0 0 0 0 0 0 0 0 0 0 0 0 0 0 0 0 127 0"/><feOffset dx="1.67" dy="1.67"/><feGaussianBlur stdDeviation="2.505"/><feComposite in2="hardAlpha" k2="-1" k3="1" operator="arithmetic"/><feColorMatrix values="0 0 0 0 0 0 0 0 0 0 0 0 0 0 0 0 0 0 0.25 0"/><feBlend in2="shape" result="effect1_innerShadow_112_782"/></filter></defs></svg>
